public/images/googleplay.svg

<svg width="204" height="59" viewBox="0 0 204 59" fill="none" xmlns="http://www.w3.org/2000/svg">
<path d="M196.396 59H7.55371C3.40106 59 0 55.6794 0 51.625V7.375C0 3.3206 3.40106 1.7097e-06 7.55371 1.7097e-06H196.396C200.549 1.7097e-06 203.95 3.3206 203.95 7.375V51.625C203.95 55.6794 200.549 59 196.396 59Z" fill="black"/>
<path d="M196.396 1.18184C199.894 1.18184 202.74 3.96038 202.74 7.375V51.625C202.74 55.0396 199.894 57.8182 196.396 57.8182H7.55371C4.05634 57.8182 1.21048 55.0396 1.21048 51.625V7.375C1.21048 3.96038 4.05634 1.18184 7.55371 1.18184H196.396ZM196.396 1.7097e-06H7.55371C3.40106 1.7097e-06 0 3.3206 0 7.375V51.625C0 55.6794 3.40106 59 7.55371 59H196.396C200.549 59 203.95 55.6794 203.95 51.625V7.375C203.95 3.3206 200.549 1.7097e-06 196.396 1.7097e-06Z" fill="#A6A6A6"/>
<path d="M71.6353 15.1095C71.6353 16.3411 71.2576 17.3275 70.5136 18.0632C69.6581 18.9353 68.5439 19.3741 67.1786 19.3741C65.8737 19.3741 64.7595 18.9279 63.8455 18.0484C62.9297 17.1561 62.4727 16.0609 62.4727 14.75C62.4727 13.4391 62.9297 12.3439 63.8455 11.4589C64.7595 10.572 65.8737 10.1259 67.1786 10.1259C67.8282 10.1259 68.4476 10.2568 69.0387 10.5001C69.6279 10.7454 70.1076 11.0772 70.455 11.4865L69.6657 12.2646C69.0595 11.5658 68.2342 11.221 67.1786 11.221C66.2268 11.221 65.4016 11.5455 64.701 12.2001C64.0079 12.8564 63.6605 13.7064 63.6605 14.75C63.6605 15.7935 64.0079 16.6509 64.701 17.3073C65.4016 17.9544 66.2268 18.2863 67.1786 18.2863C68.1889 18.2863 69.0387 17.9544 69.7091 17.2999C70.151 16.8666 70.4022 16.2692 70.4683 15.5059H67.1786V14.4402H71.5673C71.6202 14.6707 71.6353 14.8938 71.6353 15.1095Z" fill="white" stroke="white" stroke-width="0.16" stroke-miterlimit="10"/>
<path d="M78.5981 11.4146H74.4756V14.2171H78.1921V15.2828H74.4756V18.0853H78.5981V19.1712H73.3086V10.3286H78.5981V11.4146Z" fill="white" stroke="white" stroke-width="0.16" stroke-miterlimit="10"/>
<path d="M83.5121 19.1712H82.345V11.4146H79.8164V10.3286H86.0425V11.4146H83.5121V19.1712Z" fill="white" stroke="white" stroke-width="0.16" stroke-miterlimit="10"/>
<path d="M90.5469 19.1712V10.3286H91.712V19.1712H90.5469Z" fill="white" stroke="white" stroke-width="0.16" stroke-miterlimit="10"/>
<path d="M96.8792 19.1712H95.7216V11.4146H93.1836V10.3286H99.4173V11.4146H96.8792V19.1712Z" fill="white" stroke="white" stroke-width="0.16" stroke-miterlimit="10"/>
<path d="M111.205 18.0337C110.312 18.9279 109.205 19.3741 107.885 19.3741C106.558 19.3741 105.451 18.9279 104.558 18.0337C103.666 17.1413 103.223 16.0461 103.223 14.75C103.223 13.4538 103.666 12.3586 104.558 11.4663C105.451 10.572 106.558 10.1259 107.885 10.1259C109.198 10.1259 110.304 10.572 111.197 11.4736C112.096 12.3734 112.54 13.4612 112.54 14.75C112.54 16.0461 112.096 17.1413 111.205 18.0337ZM105.421 17.2925C106.093 17.9544 106.911 18.2863 107.885 18.2863C108.852 18.2863 109.677 17.9544 110.342 17.2925C111.012 16.6306 111.352 15.7806 111.352 14.75C111.352 13.7193 111.012 12.8694 110.342 12.2074C109.677 11.5455 108.852 11.2137 107.885 11.2137C106.911 11.2137 106.093 11.5455 105.421 12.2074C104.75 12.8694 104.41 13.7193 104.41 14.75C104.41 15.7806 104.75 16.6306 105.421 17.2925Z" fill="white" stroke="white" stroke-width="0.16" stroke-miterlimit="10"/>
<path d="M114.176 19.1712V10.3286H115.592L119.996 17.2058H120.047L119.996 15.5059V10.3286H121.161V19.1712H119.945L115.333 11.9548H115.282L115.333 13.6621V19.1712H114.176Z" fill="white" stroke="white" stroke-width="0.16" stroke-miterlimit="10"/>
<path d="M102.934 32.0849C99.3852 32.0849 96.4864 34.7215 96.4864 38.3592C96.4864 41.9674 99.3852 44.6316 102.934 44.6316C106.489 44.6316 109.388 41.9674 109.388 38.3592C109.388 34.7215 106.489 32.0849 102.934 32.0849ZM102.934 42.161C100.987 42.161 99.3115 40.592 99.3115 38.3592C99.3115 36.0969 100.987 34.5555 102.934 34.5555C104.88 34.5555 106.563 36.0969 106.563 38.3592C106.563 40.592 104.88 42.161 102.934 42.161ZM88.8666 32.0849C85.3107 32.0849 82.4195 34.7215 82.4195 38.3592C82.4195 41.9674 85.3107 44.6316 88.8666 44.6316C92.4206 44.6316 95.3137 41.9674 95.3137 38.3592C95.3137 34.7215 92.4206 32.0849 88.8666 32.0849ZM88.8666 42.161C86.9178 42.161 85.2371 40.592 85.2371 38.3592C85.2371 36.0969 86.9178 34.5555 88.8666 34.5555C90.8136 34.5555 92.4886 36.0969 92.4886 38.3592C92.4886 40.592 90.8136 42.161 88.8666 42.161ZM72.1276 34.0079V36.674H78.6484C78.4576 38.1638 77.9478 39.2589 77.1659 40.0223C76.2142 40.9441 74.7318 41.9674 72.1276 41.9674C68.1147 41.9674 64.9724 38.8054 64.9724 34.8874C64.9724 30.9694 68.1147 27.8074 72.1276 27.8074C74.2974 27.8074 75.8762 28.6353 77.0413 29.7083L78.9656 27.8295C77.3359 26.3103 75.168 25.1432 72.1276 25.1432C66.6248 25.1432 62 29.5147 62 34.8874C62 40.2601 66.6248 44.6316 72.1276 44.6316C75.1019 44.6316 77.3359 43.6803 79.0921 41.8955C80.8918 40.1384 81.4527 37.6678 81.4527 35.6728C81.4527 35.0533 81.3998 34.4836 81.3054 34.0079H72.1276ZM140.576 36.0748C140.045 34.6717 138.408 32.0849 135.073 32.0849C131.768 32.0849 129.016 34.6274 129.016 38.3592C129.016 41.8734 131.74 44.6316 135.39 44.6316C138.341 44.6316 140.045 42.8745 140.745 41.8513L138.555 40.426C137.824 41.4696 136.829 42.161 135.39 42.161C133.96 42.161 132.935 41.5212 132.278 40.2601L140.872 36.7883L140.576 36.0748ZM131.813 38.1638C131.74 35.7448 133.738 34.5058 135.169 34.5058C136.291 34.5058 137.242 35.0534 137.56 35.8369L131.813 38.1638ZM124.828 44.25H127.653V25.8125H124.828V44.25ZM120.201 33.4825H120.107C119.472 32.7487 118.262 32.0849 116.728 32.0849C113.511 32.0849 110.568 34.8432 110.568 38.3795C110.568 41.8955 113.511 44.6316 116.728 44.6316C118.262 44.6316 119.472 43.9623 120.107 43.2064H120.201V44.1062C120.201 46.5049 118.889 47.7937 116.772 47.7937C115.046 47.7937 113.975 46.5768 113.533 45.5535L111.076 46.5547C111.785 48.2177 113.66 50.2643 116.772 50.2643C120.084 50.2643 122.879 48.3615 122.879 43.7319V32.4666H120.201V33.4825ZM116.97 42.161C115.023 42.161 113.393 40.5698 113.393 38.3795C113.393 36.1688 115.023 34.5555 116.97 34.5555C118.889 34.5555 120.401 36.1688 120.401 38.3795C120.401 40.5698 118.889 42.161 116.97 42.161ZM153.802 25.8125H147.045V44.25H149.863V37.264H153.802C156.931 37.264 160 35.0533 160 31.5373C160 28.0231 156.924 25.8125 153.802 25.8125ZM153.876 34.6993H149.863V28.3771H153.876C155.979 28.3771 157.18 30.0826 157.18 31.5373C157.18 32.9644 155.979 34.6993 153.876 34.6993ZM171.293 32.0499C169.257 32.0499 167.14 32.9275 166.269 34.8727L168.77 35.8959C169.308 34.8727 170.297 34.5408 171.344 34.5408C172.805 34.5408 174.288 35.3981 174.31 36.9118V37.1054C173.8 36.8178 172.709 36.3919 171.366 36.3919C168.673 36.3919 165.929 37.8393 165.929 40.5403C165.929 43.011 168.135 44.6021 170.615 44.6021C172.511 44.6021 173.557 43.7669 174.214 42.7953H174.31V44.2205H177.032V37.1478C177.032 33.8789 174.531 32.0499 171.293 32.0499ZM170.953 42.1536C170.031 42.1536 168.747 41.7074 168.747 40.592C168.747 39.1649 170.348 38.6173 171.735 38.6173C172.975 38.6173 173.557 38.8847 174.31 39.2368C174.089 40.9441 172.584 42.1536 170.953 42.1536ZM186.946 32.4537L183.707 40.4463H183.611L180.263 32.4537H177.224L182.255 43.6231L179.385 49.8384H182.329L190.081 32.4537H186.946ZM161.548 44.25H164.373V25.8125H161.548V44.25Z" fill="white"/>
<path d="M15.7631 11.1197C15.3193 11.5732 15.0625 12.2794 15.0625 13.1939V45.8135C15.0625 46.728 15.3193 47.4342 15.7631 47.8877L15.8726 47.9873L34.5945 29.7157V29.2843L15.8726 11.0127L15.7631 11.1197Z" fill="url(#paint0_linear_164_1557)"/>
<path d="M40.8314 35.8093L34.5977 29.7157V29.2843L40.8389 23.1907L40.9786 23.27L48.3699 27.376C50.4793 28.5413 50.4793 30.4588 48.3699 31.6314L40.9786 35.73L40.8314 35.8093Z" fill="url(#paint1_linear_164_1557)"/>
<path d="M40.978 35.73L34.597 29.5L15.7656 47.8877C16.4662 48.6068 17.6087 48.6934 18.908 47.9744L40.978 35.73Z" fill="url(#paint2_linear_164_1557)"/>
<path d="M40.978 23.27L18.908 11.0256C17.6087 10.3139 16.4662 10.4006 15.7656 11.1197L34.597 29.5L40.978 23.27Z" fill="url(#paint3_linear_164_1557)"/>
<defs>
<linearGradient id="paint0_linear_164_1557" x1="32.9322" y1="46.1532" x2="8.18527" y2="20.8066" gradientUnits="userSpaceOnUse">
<stop stop-color="#00A0FF"/>
<stop offset="0.0066" stop-color="#00A1FF"/>
<stop offset="0.2601" stop-color="#00BEFF"/>
<stop offset="0.5122" stop-color="#00D2FF"/>
<stop offset="0.7604" stop-color="#00DFFF"/>
<stop offset="1" stop-color="#00E3FF"/>
</linearGradient>
<linearGradient id="paint1_linear_164_1557" x1="51.1167" y1="29.498" x2="14.5615" y2="29.498" gradientUnits="userSpaceOnUse">
<stop stop-color="#FFE000"/>
<stop offset="0.4087" stop-color="#FFBD00"/>
<stop offset="0.7754" stop-color="#FFA500"/>
<stop offset="1" stop-color="#FF9C00"/>
</linearGradient>
<linearGradient id="paint2_linear_164_1557" x1="37.5082" y1="26.1132" x2="3.94934" y2="-8.2588" gradientUnits="userSpaceOnUse">
<stop stop-color="#FF3A44"/>
<stop offset="1" stop-color="#C31162"/>
</linearGradient>
<linearGradient id="paint3_linear_164_1557" x1="11.0254" y1="58.7401" x2="26.0109" y2="43.3916" gradientUnits="userSpaceOnUse">
<stop stop-color="#32A071"/>
<stop offset="0.0685" stop-color="#2DA771"/>
<stop offset="0.4762" stop-color="#15CF74"/>
<stop offset="0.8009" stop-color="#06E775"/>
<stop offset="1" stop-color="#00F076"/>
</linearGradient>
</defs>
</svg>

<svg xmlns="http://www.w3.org/2000/svg" width="204" height="59" fill="none" xmlns:v="https://vecta.io/nano"><path d="M196.396 59H7.554C3.401 59 0 55.679 0 51.625V7.375C0 3.321 3.401 0 7.554 0h188.842c4.153 0 7.554 3.321 7.554 7.375v44.25c0 4.054-3.401 7.375-7.554 7.375z" fill="#000"/><path d="M196.396 1.182c3.498 0 6.344 2.779 6.344 6.193v44.25c0 3.415-2.846 6.193-6.344 6.193H7.554c-3.497 0-6.343-2.779-6.343-6.193V7.375c0-3.415 2.846-6.193 6.343-6.193h188.842zm0-1.182H7.554C3.401 0 0 3.321 0 7.375v44.25C0 55.679 3.401 59 7.554 59h188.842c4.153 0 7.554-3.321 7.554-7.375V7.375c0-4.054-3.401-7.375-7.554-7.375z" fill="#a6a6a6"/><g fill="#fff"><path d="M71.635 15.11c0 1.232-.378 2.218-1.122 2.954-.855.872-1.97 1.311-3.335 1.311-1.305 0-2.419-.446-3.333-1.326-.916-.892-1.373-1.988-1.373-3.298s.457-2.406 1.373-3.291 2.028-1.333 3.333-1.333a4.85 4.85 0 0 1 1.86.374c.591.243 1.069.577 1.416.986l-.789.778c-.606-.699-1.431-1.044-2.487-1.044-.952 0-1.777.325-2.478.979-.693.656-1.04 1.506-1.04 2.55s.347 1.901 1.04 2.557c.701.647 1.526.979 2.478.979 1.01 0 1.86-.332 2.531-.986.442-.433.693-1.031.759-1.794h-3.29V14.44h4.389a2.96 2.96 0 0 1 .068.669zm6.963-3.695h-4.123v2.803h3.716v1.066h-3.716v2.803h4.123v1.086h-5.29V10.33h5.29v1.086zm4.914 7.756h-1.167v-7.757h-2.529v-1.086h6.226v1.086h-2.53v7.757zm7.035 0v-8.843h1.165v8.843h-1.165zm6.332 0h-1.158v-7.757h-2.538v-1.086h6.234v1.086h-2.538v7.757zm14.326-1.137c-.893.894-2 1.34-3.32 1.34-1.327 0-2.434-.446-3.327-1.34s-1.335-1.988-1.335-3.284.443-2.391 1.335-3.284 2-1.34 3.327-1.34c1.313 0 2.419.446 3.312 1.348a4.45 4.45 0 0 1 1.343 3.276c0 1.296-.444 2.391-1.335 3.284zm-5.784-.741c.672.662 1.49.994 2.464.994.967 0 1.792-.332 2.457-.994.67-.662 1.01-1.512 1.01-2.543s-.34-1.881-1.01-2.543-1.49-.994-2.457-.994c-.974 0-1.792.332-2.464.994s-1.011 1.512-1.011 2.543.34 1.881 1.011 2.543zm8.755 1.878v-8.843h1.416l4.404 6.877h.051l-.051-1.7v-5.177h1.165v8.843h-1.216l-4.612-7.216h-.051l.051 1.707v5.509h-1.157z" stroke="#fff" stroke-width=".16" stroke-miterlimit="10"/><path d="M102.934 32.085c-3.549 0-6.448 2.637-6.448 6.274 0 3.608 2.899 6.272 6.448 6.272 3.555 0 6.454-2.664 6.454-6.272 0-3.638-2.899-6.274-6.454-6.274zm0 10.076c-1.947 0-3.623-1.569-3.623-3.802 0-2.262 1.675-3.804 3.623-3.804s3.629 1.541 3.629 3.804c0 2.233-1.683 3.802-3.629 3.802zM88.867 32.085c-3.556 0-6.447 2.637-6.447 6.274 0 3.608 2.891 6.272 6.447 6.272s6.447-2.664 6.447-6.272c0-3.638-2.893-6.274-6.447-6.274zm0 10.076c-1.949 0-3.63-1.569-3.63-3.802 0-2.262 1.681-3.804 3.63-3.804s3.622 1.541 3.622 3.804c0 2.233-1.675 3.802-3.622 3.802zm-16.739-8.153v2.666h6.521c-.191 1.49-.701 2.585-1.483 3.348-.952.922-2.434 1.945-5.038 1.945-4.013 0-7.155-3.162-7.155-7.08s3.142-7.08 7.155-7.08a7 7 0 0 1 4.914 1.901l1.924-1.879c-1.63-1.519-3.798-2.686-6.838-2.686-5.503 0-10.128 4.372-10.128 9.744s4.625 9.744 10.128 9.744c2.974 0 5.208-.951 6.965-2.736 1.8-1.757 2.361-4.228 2.361-6.223 0-.62-.053-1.189-.147-1.665h-9.178zm68.448 2.067c-.531-1.403-2.168-3.99-5.503-3.99-3.305 0-6.057 2.543-6.057 6.274 0 3.514 2.724 6.272 6.374 6.272 2.951 0 4.655-1.757 5.355-2.78l-2.19-1.425c-.731 1.044-1.726 1.735-3.165 1.735-1.43 0-2.455-.64-3.112-1.901l8.594-3.472-.296-.713zm-8.763 2.089c-.073-2.419 1.925-3.658 3.356-3.658 1.122 0 2.073.548 2.391 1.331l-5.747 2.327zm-6.985 6.086h2.825V25.813h-2.825V44.25zm-4.627-10.767h-.094c-.635-.734-1.845-1.398-3.379-1.398-3.217 0-6.16 2.758-6.16 6.295 0 3.516 2.943 6.252 6.16 6.252 1.534 0 2.744-.669 3.379-1.425h.094v.9c0 2.399-1.312 3.688-3.429 3.688-1.726 0-2.797-1.217-3.239-2.24l-2.457 1.001c.709 1.663 2.584 3.71 5.696 3.71 3.312 0 6.107-1.903 6.107-6.532V32.467h-2.678v1.016zm-3.231 8.679c-1.947 0-3.577-1.591-3.577-3.782 0-2.211 1.63-3.824 3.577-3.824 1.919 0 3.431 1.613 3.431 3.824 0 2.19-1.512 3.782-3.431 3.782zm36.832-16.349h-6.757V44.25h2.818v-6.986h3.939c3.129 0 6.198-2.211 6.198-5.727s-3.076-5.725-6.198-5.725zm.074 8.887h-4.013v-6.322h4.013c2.103 0 3.304 1.706 3.304 3.16 0 1.427-1.201 3.162-3.304 3.162zm17.417-2.649c-2.036 0-4.153.878-5.024 2.823l2.501 1.023c.538-1.023 1.527-1.355 2.574-1.355 1.461 0 2.944.857 2.966 2.371v.194c-.51-.288-1.601-.714-2.944-.714-2.693 0-5.437 1.447-5.437 4.148 0 2.471 2.206 4.062 4.686 4.062 1.896 0 2.942-.835 3.599-1.807h.096v1.425h2.722v-7.073c0-3.269-2.501-5.098-5.739-5.098zm-.34 10.104c-.922 0-2.206-.446-2.206-1.562 0-1.427 1.601-1.975 2.988-1.975 1.24 0 1.822.267 2.575.62-.221 1.707-1.726 2.917-3.357 2.917zm15.993-9.7l-3.239 7.993h-.096l-3.348-7.993h-3.039l5.031 11.169-2.87 6.215h2.944l7.752-17.385h-3.135zM161.548 44.25h2.825V25.813h-2.825V44.25z"/></g><path d="M15.763 11.12c-.444.454-.701 1.16-.701 2.074v32.62c0 .915.257 1.621.701 2.074l.11.1 18.722-18.272v-.431L15.873 11.013l-.11.107z" fill="url(#A)"/><path d="M40.831 35.809l-6.234-6.094v-.431l6.241-6.094.14.079 7.391 4.106c2.109 1.165 2.109 3.083 0 4.255l-7.391 4.099-.147.079z" fill="url(#B)"/><path d="M40.978 35.73l-6.381-6.23-18.831 18.388c.701.719 1.843.806 3.142.087l22.07-12.244z" fill="url(#C)"/><path d="M40.978 23.27l-22.07-12.244c-1.299-.712-2.442-.625-3.142.094L34.597 29.5l6.381-6.23z" fill="url(#D)"/><defs><linearGradient id="A" x1="32.932" y1="46.153" x2="8.185" y2="20.807" href="#E"><stop stop-color="#00a0ff"/><stop offset=".007" stop-color="#00a1ff"/><stop offset=".26" stop-color="#00beff"/><stop offset=".512" stop-color="#00d2ff"/><stop offset=".76" stop-color="#00dfff"/><stop offset="1" stop-color="#00e3ff"/></linearGradient><linearGradient id="B" x1="51.117" y1="29.498" x2="14.562" y2="29.498" href="#E"><stop stop-color="#ffe000"/><stop offset=".409" stop-color="#ffbd00"/><stop offset=".775" stop-color="orange"/><stop offset="1" stop-color="#ff9c00"/></linearGradient><linearGradient id="C" x1="37.508" y1="26.113" x2="3.949" y2="-8.259" href="#E"><stop stop-color="#ff3a44"/><stop offset="1" stop-color="#c31162"/></linearGradient><linearGradient id="D" x1="11.025" y1="58.74" x2="26.011" y2="43.392" href="#E"><stop stop-color="#32a071"/><stop offset=".069" stop-color="#2da771"/><stop offset=".476" stop-color="#15cf74"/><stop offset=".801" stop-color="#06e775"/><stop offset="1" stop-color="#00f076"/></linearGradient><linearGradient id="E" gradientUnits="userSpaceOnUse"/></defs></svg>
